X:1
T:Humours of Carrigaholt, The
M:4/4
L:1/8
R:reel
K:Dmaj
fe|d=cAF ~G2AG|FDD2 FGAB|=cAGF ~G2FG|Add^c d2:|
~f2df ~f2gf|edcd efge|fd~d2 f2gf|edcd ~e3e|
fded ~f2gf|edcd ef~g2|agfa gfec|Addcd2||
